dist/assets/img/svg/mail.svg

<svg width="30" height="30" viewBox="0 0 30 30" fill="none" xmlns="http://www.w3.org/2000/svg">
<path d="M29.9905 4.951C29.9871 4.91706 29.9804 4.88363 29.9705 4.851C29.9605 4.81869 29.9471 4.7875 29.9305 4.758C29.9225 4.744 29.921 4.7275 29.9115 4.714C29.902 4.7005 29.89 4.695 29.8805 4.6835C29.8582 4.65719 29.8332 4.63325 29.806 4.612C29.7823 4.593 29.7569 4.57625 29.73 4.562C29.7021 4.54763 29.6728 4.53606 29.6425 4.5275C29.6098 4.51781 29.5764 4.51113 29.5425 4.5075C29.5275 4.5075 29.5145 4.499 29.499 4.499H0.5C0.484875 4.50125 0.469813 4.50425 0.455 4.508C0.422438 4.51125 0.39025 4.51781 0.359 4.5275C0.328 4.53631 0.297812 4.54806 0.269 4.5625C0.242687 4.57688 0.217812 4.59363 0.1945 4.6125C0.167 4.63375 0.141875 4.65788 0.1195 4.6845C0.11 4.696 0.097 4.7025 0.0885 4.715C0.08 4.7275 0.0775 4.745 0.0695 4.759C0.0529375 4.7885 0.0395 4.81969 0.0295 4.852C0.0195625 4.88463 0.012875 4.91806 0.0095 4.952C0.0095 4.9685 0 4.983 0 5.002V25.001C0 25.2771 0.223875 25.501 0.5 25.501H29.5C29.7761 25.501 30 25.2771 30 25.001V5.001C30 4.984 29.992 4.9695 29.9905 4.951ZM27.894 5.501L15 14.3935L2.106 5.501H27.894ZM29 24.501H1V5.9535L14.716 15.4125C14.8869 15.5305 15.1131 15.5305 15.284 15.4125L29 5.9535V24.501Z" fill="black"/>
</svg>

<svg width="30" height="30" fill="none" xmlns="http://www.w3.org/2000/svg"><path d="M29.99 4.951a.524.524 0 00-.06-.193c-.008-.014-.009-.03-.018-.044-.01-.014-.022-.019-.031-.03a.506.506 0 00-.338-.176c-.015 0-.028-.009-.044-.009H.5a.458.458 0 00-.045.009.516.516 0 00-.186.054.498.498 0 00-.15.123c-.009.011-.022.018-.03.03-.009.013-.011.03-.02.044a.48.48 0 00-.06.193c0 .016-.009.031-.009.05v19.999a.5.5 0 00.5.5h29a.5.5 0 00.5-.5v-20c0-.017-.008-.032-.01-.05zm-2.096.55L15 14.393 2.106 5.502h25.788zm1.106 19H1V5.954l13.716 9.459a.5.5 0 00.568 0L29 5.952V24.5z" fill="#000"/></svg>
